images/card-colored.svg

<svg width="235" height="352" viewBox="0 0 235 352" fill="none" xmlns="http://www.w3.org/2000/svg">
<rect width="234.062" height="351.092" rx="10" fill="#09D9B9"/>
<rect width="234.062" height="351.092" rx="10" fill="url(#paint0_linear)" fill-opacity="0.5"/>
<g clip-path="url(#clip0)">
<path d="M90.8024 57.5303L87.4824 52.7315L86.4864 53.8899V57.5303H83.4984V40.7348H86.4864V50.1667H86.6524L90.3045 45.8645H93.7905L89.4745 50.8287L94.0395 57.5303H90.8024Z" fill="white"/>
<path d="M99.186 57.6952C98.0241 57.6952 97.028 57.4469 96.198 56.9505C95.368 56.4542 94.704 55.7922 94.206 54.8822C93.708 53.9721 93.542 52.9792 93.542 51.7381C93.542 50.5799 93.791 49.5043 94.206 48.5941C94.621 47.684 95.285 46.9394 96.115 46.443C96.945 45.9466 97.941 45.6157 99.1031 45.6157C100.099 45.6157 101.012 45.8638 101.759 46.2775C102.589 46.6912 103.17 47.3531 103.668 48.1805C104.166 49.0079 104.332 50.0834 104.332 51.3245V52.5655L96.447 52.5655C96.53 53.3928 96.862 54.1375 97.277 54.6339C97.775 55.1303 98.3561 55.3786 99.269 55.3786C99.933 55.3786 100.514 55.2131 100.846 54.8822C101.178 54.5512 101.427 54.2202 101.593 53.7238L104.249 54.4684C104.083 54.9648 103.834 55.544 103.419 56.0404C103.004 56.5369 102.506 56.9505 101.759 57.2815C101.012 57.5297 100.182 57.6952 99.186 57.6952ZM99.0201 48.0978C98.3561 48.0978 97.775 48.3459 97.36 48.7596C96.945 49.1733 96.613 49.7525 96.447 50.5799H101.51C101.51 49.918 101.261 49.3388 100.846 48.8424C100.348 48.3459 99.767 48.0978 99.0201 48.0978Z" fill="white"/>
<path d="M108.399 58.026L108.648 57.4468L104.414 45.8637H107.485L110.059 53.5582H110.225L112.798 45.8637H115.869L110.888 59.267C110.722 59.6808 110.473 60.1771 110.142 60.5909C109.81 61.0045 109.395 61.4182 108.897 61.6664C108.399 61.9146 107.734 62.0801 106.987 62.0801C106.655 62.0801 106.406 62.0801 106.075 61.9974C105.743 61.9146 105.577 61.8319 105.328 61.7491L105.992 59.4325C106.738 59.598 107.236 59.598 107.568 59.3498C107.817 59.1843 108.15 58.6879 108.399 58.026Z" fill="white"/>
<path d="M126.244 49.5869L123.505 50.0005C123.339 49.4214 123.09 49.0078 122.758 48.6768C122.426 48.3458 121.928 48.1804 121.264 48.1804C120.351 48.1804 119.77 48.5113 119.272 49.1732C118.857 49.8351 118.608 50.6625 118.608 51.738C118.608 52.8136 118.857 53.7237 119.272 54.3856C119.687 55.0475 120.351 55.3785 121.264 55.3785C121.845 55.3785 122.343 55.213 122.675 54.8821C123.007 54.5511 123.339 54.1374 123.422 53.641L126.161 54.0547C125.912 55.1302 125.331 56.0403 124.501 56.7849C123.588 57.4468 122.509 57.8605 121.181 57.8605C120.019 57.8605 119.106 57.6123 118.276 57.1159C117.446 56.6195 116.865 55.8748 116.367 54.9647C115.952 54.0547 115.703 52.9791 115.703 51.8208C115.703 50.6625 115.952 49.5869 116.367 48.6768C116.782 47.7667 117.446 47.1048 118.276 46.6084C119.106 46.112 120.019 45.8637 121.181 45.8637C122.509 45.8637 123.588 46.1947 124.501 46.9393C125.497 47.4358 126.078 48.4286 126.244 49.5869Z" fill="white"/>
<path d="M133.963 57.5296V56.2058H133.797C133.631 56.5368 133.299 56.9504 132.801 57.2814C132.303 57.6123 131.639 57.7778 130.809 57.7778C130.145 57.7778 129.481 57.6123 128.9 57.3642C128.319 57.1159 127.904 56.7022 127.489 56.2058C127.157 55.7094 126.991 55.0475 126.991 54.3029C126.991 53.1446 127.406 52.3172 128.236 51.738C129.066 51.1589 130.228 50.8279 131.722 50.6625C132.054 50.6625 132.386 50.5798 132.718 50.5798C133.05 50.5798 133.299 50.497 133.548 50.4143C133.714 50.3315 133.88 50.166 133.88 50.0005V49.8351C133.88 49.3387 133.714 48.925 133.382 48.5941C133.05 48.3458 132.635 48.1804 132.137 48.1804C131.556 48.1804 131.141 48.3458 130.726 48.5941C130.311 48.8423 130.145 49.1732 129.979 49.5869L127.24 49.1732C127.489 48.0977 128.07 47.2703 128.983 46.6911C129.896 46.112 130.975 45.8637 132.22 45.8637C132.967 45.8637 133.714 46.0292 134.461 46.2775C135.125 46.5257 135.706 46.9393 136.204 47.5185C136.619 48.0977 136.868 48.925 136.868 49.8351V57.6951H133.963V57.5296ZM133.797 53.641V52.069C133.714 52.1517 133.548 52.2345 133.382 52.3172C133.133 52.4 132.884 52.4 132.635 52.4826C132.386 52.5654 132.137 52.5654 131.971 52.5654C131.307 52.6481 130.726 52.8136 130.394 53.0619C130.062 53.31 129.896 53.7237 129.896 54.2201C129.896 54.6338 130.062 54.9647 130.311 55.213C130.643 55.4612 130.975 55.5439 131.473 55.5439C132.137 55.5439 132.635 55.3785 133.133 54.9647C133.631 54.5511 133.797 54.1374 133.797 53.641Z" fill="white"/>
<path d="M145.832 46.1125L144.919 48.6773C144.836 48.5946 144.67 48.5946 144.504 48.5119C144.338 48.4291 144.089 48.4291 143.84 48.4291C143.342 48.4291 142.927 48.5119 142.595 48.76C142.263 49.0082 141.931 49.3392 141.765 49.6701C141.599 50.0838 141.433 50.4975 141.433 50.9112V57.5301H138.445V45.8643H141.35V47.519H141.516C141.682 46.9399 142.014 46.4434 142.512 46.1952C143.01 45.8643 143.591 45.6988 144.172 45.6988C144.504 45.6988 144.753 45.6988 145.085 45.7815C145.417 45.8643 145.666 45.947 145.832 46.1125Z" fill="white"/>
<path d="M156.041 57.53H153.136V56.1235H152.97C152.804 56.5372 152.472 56.8682 151.974 57.199C151.476 57.53 150.895 57.6955 150.065 57.6955C149.152 57.6955 148.405 57.4473 147.741 57.0336C147.077 56.5372 146.496 55.8753 146.081 54.9652C145.666 54.0551 145.5 52.9795 145.5 51.6557C145.5 50.332 145.749 49.2564 146.164 48.3463C146.579 47.4362 147.16 46.7743 147.824 46.3606C148.571 45.9469 149.318 45.6987 150.148 45.6987C150.895 45.6987 151.559 45.8642 152.057 46.1952C152.555 46.5261 152.887 46.857 153.053 47.2707H153.136V41.9756H156.041V57.53ZM148.239 51.6557C148.239 52.7313 148.488 53.6414 148.903 54.3033C149.318 54.9652 149.982 55.2962 150.895 55.2962C151.476 55.2962 151.974 55.1307 152.389 54.7997C152.721 54.4688 153.053 54.0551 153.219 53.476C153.385 52.8968 153.468 52.3176 153.468 51.6557C153.468 50.6629 153.302 49.7528 152.887 49.0909C152.472 48.429 151.891 48.098 150.978 48.098C150.065 48.098 149.484 48.429 148.986 49.0909C148.488 49.7528 148.239 50.5801 148.239 51.6557Z" fill="white"/>
<path d="M84.9096 43.4647C81.0916 43.4647 78.0205 40.3208 78.0205 36.5149C78.0205 32.709 81.0916 29.6478 84.9096 29.6478C88.7276 29.6478 91.7987 32.709 91.7987 36.5149C91.8817 40.3208 88.7276 43.4647 84.9096 43.4647ZM84.9096 32.3781C82.5856 32.3781 80.7595 34.281 80.7595 36.5149C80.7595 38.8315 82.6686 40.6518 84.9096 40.6518C87.2336 40.6518 89.0596 38.7488 89.0596 36.5149C89.1426 34.281 87.2336 32.3781 84.9096 32.3781Z" fill="white"/>
</g>
<g clip-path="url(#clip1)">
<path opacity="0.3" d="M134.21 264.997C133.88 264.668 133.432 264.483 132.966 264.484C132.5 264.484 132.053 264.67 131.724 265C131.395 265.33 131.21 265.778 131.211 266.244C131.212 266.71 131.397 267.157 131.727 267.486C132.461 268.22 133.043 269.09 133.441 270.049C133.838 271.008 134.042 272.035 134.042 273.073C134.042 274.11 133.838 275.138 133.441 276.096C133.043 277.055 132.461 277.926 131.727 278.659C131.564 278.822 131.434 279.016 131.346 279.229C131.257 279.442 131.212 279.671 131.211 279.901C131.211 280.132 131.256 280.361 131.345 280.574C131.433 280.787 131.562 280.981 131.725 281.144C131.888 281.308 132.081 281.437 132.294 281.526C132.508 281.614 132.736 281.66 132.967 281.66C133.197 281.661 133.426 281.615 133.639 281.527C133.852 281.439 134.046 281.31 134.21 281.147C135.269 280.087 136.11 278.829 136.684 277.445C137.257 276.06 137.552 274.577 137.552 273.078C137.552 271.579 137.257 270.095 136.684 268.711C136.11 267.327 135.269 266.069 134.21 265.009L134.21 264.997Z" fill="#0E1C36"/>
<path opacity="0.3" d="M137.006 263.768C139.472 266.237 140.857 269.583 140.857 273.072C140.857 276.561 139.472 279.907 137.006 282.376C136.838 282.538 136.705 282.731 136.613 282.946C136.521 283.16 136.472 283.39 136.47 283.623C136.468 283.856 136.513 284.087 136.601 284.303C136.689 284.519 136.82 284.715 136.984 284.88C137.149 285.045 137.345 285.175 137.561 285.263C137.777 285.351 138.008 285.396 138.241 285.394C138.474 285.392 138.704 285.343 138.919 285.251C139.133 285.159 139.326 285.026 139.488 284.858C142.616 281.731 144.373 277.489 144.373 273.066C144.373 268.643 142.616 264.401 139.488 261.273C139.158 260.944 138.71 260.76 138.243 260.761C138.012 260.762 137.783 260.808 137.57 260.897C137.357 260.986 137.163 261.116 137 261.28C136.837 261.443 136.708 261.638 136.62 261.851C136.532 262.065 136.487 262.294 136.488 262.525C136.489 262.992 136.675 263.439 137.006 263.768V263.768Z" fill="#0E1C36"/>
</g>
<rect x="70.9987" y="247.325" width="46.8123" height="49.2129" rx="5" fill="#EEC458"/>
<rect x="70.9987" y="247.325" width="46.8123" height="49.2129" rx="5" fill="url(#paint1_linear)" fill-opacity="0.6"/>
<mask id="mask0" mask-type="alpha" maskUnits="userSpaceOnUse" x="70" y="247" width="48" height="50">
<rect x="70.9987" y="247.325" width="46.8123" height="49.2129" rx="5" fill="#EEC458"/>
<rect x="70.9987" y="247.325" width="46.8123" height="49.2129" rx="5" fill="url(#paint2_linear)" fill-opacity="0.6"/>
</mask>
<g mask="url(#mask0)">
<rect x="50.3727" y="261.808" width="38.1311" height="49.054" stroke="#C4A145" stroke-width="4"/>
<rect x="105.767" y="239.182" width="38.1311" height="62.3175" stroke="#C4A145" stroke-width="4"/>
<rect x="105.328" y="261.369" width="13.2635" height="3.12082" fill="#C4A145"/>
<rect x="105.328" y="261.369" width="13.2635" height="3.12082" fill="#C4A145"/>
<rect x="105.328" y="261.369" width="13.2635" height="3.12082" fill="#C4A145"/>
<rect x="105.328" y="261.369" width="13.2635" height="3.12082" fill="#C4A145"/>
<rect x="105.328" y="278.533" width="13.2635" height="3.12082" fill="#C4A145"/>
<rect x="105.328" y="278.533" width="13.2635" height="3.12082" fill="#C4A145"/>
<rect x="105.328" y="278.533" width="13.2635" height="3.12082" fill="#C4A145"/>
<rect x="105.328" y="278.533" width="13.2635" height="3.12082" fill="#C4A145"/>
<rect x="66.3174" y="271.511" width="22.6259" height="3.12082" fill="#C4A145"/>
<rect x="66.3174" y="271.511" width="22.6259" height="3.12082" fill="#C4A145"/>
<rect x="66.3174" y="271.511" width="22.6259" height="3.12082" fill="#C4A145"/>
<rect x="66.3174" y="271.511" width="22.6259" height="3.12082" fill="#C4A145"/>
<rect x="66.3174" y="283.995" width="22.6259" height="3.12082" fill="#C4A145"/>
<rect x="66.3174" y="283.995" width="22.6259" height="3.12082" fill="#C4A145"/>
<rect x="66.3174" y="283.995" width="22.6259" height="3.12082" fill="#C4A145"/>
<rect x="66.3174" y="283.995" width="22.6259" height="3.12082" fill="#C4A145"/>
</g>
<defs>
<linearGradient id="paint0_linear" x1="-72.5591" y1="301.939" x2="234.062" y2="-170.865" gradientUnits="userSpaceOnUse">
<stop stop-color="#09D9B9"/>
<stop offset="1" stop-color="white"/>
</linearGradient>
<linearGradient id="paint1_linear" x1="140.697" y1="230.921" x2="75.1585" y2="261.987" gradientUnits="userSpaceOnUse">
<stop stop-color="white"/>
<stop offset="1" stop-color="white" stop-opacity="0"/>
</linearGradient>
<linearGradient id="paint2_linear" x1="140.697" y1="230.921" x2="75.1585" y2="261.987" gradientUnits="userSpaceOnUse">
<stop stop-color="white"/>
<stop offset="1" stop-color="white" stop-opacity="0"/>
</linearGradient>
<clipPath id="clip0">
<rect width="78.0205" height="32.7984" fill="white" transform="translate(78.0205 29.6478)"/>
</clipPath>
<clipPath id="clip1">
<rect width="42.1311" height="13.3045" fill="white" transform="translate(144.379 252.006) rotate(90)"/>
</clipPath>
</defs>
</svg>

<svg width="235" height="352" fill="none" xmlns="http://www.w3.org/2000/svg"><rect width="234.062" height="351.092" rx="10" fill="#09D9B9"/><rect width="234.062" height="351.092" rx="10" fill="url(#paint0_linear)" fill-opacity=".5"/><g clip-path="url(#clip0)" fill="#fff"><path d="M90.802 57.53l-3.32-4.799-.996 1.159v3.64h-2.988V40.735h2.988v9.432h.166l3.653-4.303h3.485l-4.316 4.965 4.566 6.701h-3.238z"/><path d="M99.186 57.695c-1.162 0-2.158-.248-2.988-.745a5.322 5.322 0 0 1-1.992-2.068c-.498-.91-.664-1.903-.664-3.144 0-1.158.249-2.234.664-3.144a4.822 4.822 0 0 1 1.909-2.151 5.746 5.746 0 0 1 2.988-.827c.996 0 1.909.248 2.656.662.83.413 1.411 1.075 1.909 1.903.498.827.664 1.902.664 3.144v1.24h-7.885c.083.828.415 1.573.83 2.069.498.496 1.08.745 1.992.745.664 0 1.245-.166 1.577-.497.332-.33.581-.662.747-1.158l2.656.744c-.166.497-.415 1.076-.83 1.572-.415.497-.913.91-1.66 1.242a7.98 7.98 0 0 1-2.573.413zm-.166-9.597c-.664 0-1.245.248-1.66.662-.415.413-.747.992-.913 1.82h5.063c0-.662-.249-1.241-.664-1.738-.498-.496-1.079-.744-1.826-.744zm9.379 9.928l.249-.58-4.234-11.582h3.071l2.574 7.694h.166l2.573-7.694h3.071l-4.981 13.403c-.166.414-.415.91-.746 1.324-.332.413-.747.827-1.245 1.075-.498.249-1.163.414-1.91.414-.332 0-.581 0-.912-.083-.332-.082-.498-.165-.747-.248l.664-2.317c.746.166 1.244.166 1.576-.082.249-.166.582-.662.831-1.324zm17.845-8.439l-2.739.413c-.166-.579-.415-.992-.747-1.323-.332-.331-.83-.497-1.494-.497-.913 0-1.494.331-1.992.993-.415.662-.664 1.49-.664 2.565 0 1.076.249 1.986.664 2.648.415.661 1.079.992 1.992.992.581 0 1.079-.165 1.411-.496.332-.33.664-.745.747-1.241l2.739.414c-.249 1.075-.83 1.985-1.66 2.73a5.492 5.492 0 0 1-3.32 1.076c-1.162 0-2.075-.249-2.905-.745-.83-.496-1.411-1.241-1.909-2.151a7.601 7.601 0 0 1-.664-3.144c0-1.158.249-2.234.664-3.144.415-.91 1.079-1.572 1.909-2.069.83-.496 1.743-.744 2.905-.744 1.328 0 2.407.33 3.32 1.075.996.497 1.577 1.49 1.743 2.648zm7.719 7.943v-1.324h-.166c-.166.33-.498.744-.996 1.075-.498.331-1.162.497-1.992.497a4.939 4.939 0 0 1-1.909-.414c-.581-.248-.996-.662-1.411-1.158-.332-.497-.498-1.159-.498-1.903 0-1.158.415-1.986 1.245-2.565.83-.58 1.992-.91 3.486-1.075.332 0 .664-.083.996-.083.332 0 .581-.083.83-.166.166-.083.332-.248.332-.413v-.166c0-.496-.166-.91-.498-1.24a2.042 2.042 0 0 0-1.245-.415c-.581 0-.996.166-1.411.414-.415.248-.581.58-.747.993l-2.739-.414c.249-1.075.83-1.903 1.743-2.482.913-.579 1.992-.827 3.237-.827.747 0 1.494.165 2.241.414a4.237 4.237 0 0 1 1.743 1.24c.415.58.664 1.407.664 2.317v7.86h-2.905v-.165zm-.166-3.889v-1.572c-.083.083-.249.165-.415.248-.249.083-.498.083-.747.166a2.086 2.086 0 0 1-.664.082c-.664.083-1.245.249-1.577.497-.332.248-.498.662-.498 1.158 0 .414.166.745.415.993.332.248.664.33 1.162.33.664 0 1.162-.164 1.66-.578.498-.414.664-.828.664-1.324zm12.035-7.529l-.913 2.565c-.083-.082-.249-.082-.415-.165-.166-.083-.415-.083-.664-.083-.498 0-.913.083-1.245.331-.332.248-.664.58-.83.91-.166.414-.332.828-.332 1.241v6.62h-2.988V45.863h2.905v1.655h.166c.166-.58.498-1.076.996-1.324a3 3 0 0 1 1.66-.496c.332 0 .581 0 .913.083.332.082.581.165.747.33zm10.209 11.418h-2.905v-1.407h-.166c-.166.414-.498.745-.996 1.076-.498.331-1.079.497-1.909.497-.913 0-1.66-.249-2.324-.662a5.248 5.248 0 0 1-1.66-2.069c-.415-.91-.581-1.986-.581-3.31 0-1.323.249-2.399.664-3.309.415-.91.996-1.572 1.66-1.985.747-.414 1.494-.662 2.324-.662.747 0 1.411.165 1.909.496.498.331.83.662.996 1.076h.083v-5.295h2.905V57.53zm-7.802-5.874c0 1.075.249 1.985.664 2.647.415.662 1.079.993 1.992.993.581 0 1.079-.165 1.494-.496.332-.331.664-.745.83-1.324.166-.58.249-1.158.249-1.82 0-.993-.166-1.903-.581-2.565-.415-.662-.996-.993-1.909-.993s-1.494.331-1.992.993c-.498.662-.747 1.49-.747 2.565zM84.91 43.465c-3.818 0-6.89-3.144-6.89-6.95a6.861 6.861 0 0 1 6.89-6.867 6.861 6.861 0 0 1 6.889 6.867c.083 3.806-3.071 6.95-6.89 6.95zm0-11.087a4.155 4.155 0 0 0-4.15 4.137c0 2.316 1.909 4.137 4.15 4.137a4.155 4.155 0 0 0 4.15-4.137c.083-2.234-1.826-4.137-4.15-4.137z"/></g><g clip-path="url(#clip1)" fill="#0E1C36"><path opacity=".3" d="M134.21 264.997a1.758 1.758 0 0 0-2.483 2.489 7.904 7.904 0 0 1 0 11.173 1.755 1.755 0 0 0-.382 1.915 1.752 1.752 0 0 0 1.622 1.086 1.767 1.767 0 0 0 1.243-.513 11.42 11.42 0 0 0 2.474-12.436 11.44 11.44 0 0 0-2.474-3.702v-.012z"/><path opacity=".3" d="M137.006 263.768a13.165 13.165 0 0 1 0 18.608 1.752 1.752 0 0 0 1.235 3.018 1.761 1.761 0 0 0 1.247-.536 16.674 16.674 0 0 0 0-23.585 1.758 1.758 0 0 0-3 1.252c.001.467.187.914.518 1.243z"/></g><rect x="70.999" y="247.325" width="46.812" height="49.213" rx="5" fill="#EEC458"/><rect x="70.999" y="247.325" width="46.812" height="49.213" rx="5" fill="url(#paint1_linear)" fill-opacity=".6"/><mask id="a" maskUnits="userSpaceOnUse" x="70" y="247" width="48" height="50"><rect x="70.999" y="247.325" width="46.812" height="49.213" rx="5" fill="#EEC458"/><rect x="70.999" y="247.325" width="46.812" height="49.213" rx="5" fill="url(#paint2_linear)" fill-opacity=".6"/></mask><g mask="url(#a)"><path stroke="#C4A145" stroke-width="4" d="M50.373 261.808h38.131v49.054H50.373zm55.394-22.626h38.131V301.5h-38.131z"/><path fill="#C4A145" d="M105.328 261.369h13.264v3.121h-13.264z"/><path fill="#C4A145" d="M105.328 261.369h13.264v3.121h-13.264z"/><path fill="#C4A145" d="M105.328 261.369h13.264v3.121h-13.264z"/><path fill="#C4A145" d="M105.328 261.369h13.264v3.121h-13.264zm0 17.164h13.264v3.121h-13.264z"/><path fill="#C4A145" d="M105.328 278.533h13.264v3.121h-13.264z"/><path fill="#C4A145" d="M105.328 278.533h13.264v3.121h-13.264z"/><path fill="#C4A145" d="M105.328 278.533h13.264v3.121h-13.264zm-39.011-7.022h22.626v3.121H66.317z"/><path fill="#C4A145" d="M66.317 271.511h22.626v3.121H66.317z"/><path fill="#C4A145" d="M66.317 271.511h22.626v3.121H66.317z"/><path fill="#C4A145" d="M66.317 271.511h22.626v3.121H66.317zm0 12.484h22.626v3.121H66.317z"/><path fill="#C4A145" d="M66.317 283.995h22.626v3.121H66.317z"/><path fill="#C4A145" d="M66.317 283.995h22.626v3.121H66.317z"/><path fill="#C4A145" d="M66.317 283.995h22.626v3.121H66.317z"/></g><defs><linearGradient id="paint0_linear" x1="-72.559" y1="301.939" x2="234.062" y2="-170.865" gradientUnits="userSpaceOnUse"><stop stop-color="#09D9B9"/><stop offset="1" stop-color="#fff"/></linearGradient><linearGradient id="paint1_linear" x1="140.697" y1="230.921" x2="75.159" y2="261.987" gradientUnits="userSpaceOnUse"><stop stop-color="#fff"/><stop offset="1" stop-color="#fff" stop-opacity="0"/></linearGradient><linearGradient id="paint2_linear" x1="140.697" y1="230.921" x2="75.159" y2="261.987" gradientUnits="userSpaceOnUse"><stop stop-color="#fff"/><stop offset="1" stop-color="#fff" stop-opacity="0"/></linearGradient><clipPath id="clip0"><path fill="#fff" transform="translate(78.02 29.648)" d="M0 0h78.02v32.798H0z"/></clipPath><clipPath id="clip1"><path fill="#fff" transform="rotate(90 -53.814 198.193)" d="M0 0h42.131v13.305H0z"/></clipPath></defs></svg>
